com.fiatuconnect/capabilities/batterytemperature.svg

<svg height="960" viewBox="0 0 960 960" width="960" xmlns="http://www.w3.org/2000/svg"><path d="m644.504918 18.402 1.862065.0152145c61.332684 1.0028511 111.106312 51.4533931 111.106312 113.0500745l.000705 435.773711.014785.010476c56.656881 37.727905 91.109215 101.236966 91.109215 170.082302 0 112.803491-91.368838 204.264222-204.093082 204.264222-112.73167 0-204.102918-91.45832-204.102918-204.264222l.011438-2.172266c.709171-67.327174 34.354226-129.327283 89.422495-166.78256l1.691067-1.137952-.000295-435.773711c0-62.2217986 50.787161-113.065289 112.978213-113.065289zm0 40c-40.086666 0-72.978213 32.9218934-72.978213 73.065289v446.041933c0 7.422744-3.844996 14.304996-10.141189 18.20001l-.345851.209478c-49.592988 29.403614-80.637665 82.703951-80.637665 141.415068 0 90.725498 73.47363 164.264222 164.102918 164.264222 90.620797 0 164.093082-73.540071 164.093082-164.264222 0-58.124006-30.426888-110.944906-79.155452-140.525809l-1.482213-.889259c-6.500955-3.854407-10.48704-10.851785-10.48704-18.409488v-446.041933c0-40.1422119-32.890366-73.065289-72.968377-73.065289zm33.125644 292.598v267.963495c53.210792 14.310926 92.369438 62.761528 92.369438 120.359319 0 68.849819-55.962054 124.677186-125 124.677186-69.028085 0-125-55.827367-125-124.677186 0-57.597791 39.168507-106.048393 92.379299-120.359319v-267.963495zm-339.630562-233c15.463973 0 28 12.536027 28 28v33h13c24.300529 0 44 19.699471 44 44v514c0 24.300529-19.699471 44-44 44h-184c-24.300529 0-44-19.699471-44-44v-514c0-24.300529 19.699471-44 44-44h13v-33c0-15.463973 12.536027-28 28-28z"/></svg>

<?xml version="1.0" encoding="UTF-8"?>
<svg width="960px" height="960px" viewBox="0 0 960 960" version="1.1" xmlns="http://www.w3.org/2000/svg" xmlns:xlink="http://www.w3.org/1999/xlink">
    <title>se.cohen.renaultze/capabilities/batterytemperature</title>
    <g id="se.cohen.renaultze/capabilities/batterytemperature" stroke="none" stroke-width="1" fill="none" fill-rule="evenodd">
        <path d="M644.504918,18.402 L646.366983,18.4172145 C707.699667,19.4200656 757.473295,69.8706076 757.473295,131.467289 L757.474,567.241 L757.488785,567.251476 C814.145666,604.979381 848.598,668.488442 848.598,737.333778 C848.598,850.137269 757.229162,941.598 644.504918,941.598 C531.773248,941.598 440.402,850.13968 440.402,737.333778 L440.413438,735.161512 C441.122609,667.834338 474.767664,605.834229 529.835933,568.378952 L531.527,567.241 L531.526705,131.467289 C531.526705,69.2454904 582.313866,18.402 644.504918,18.402 Z M644.504918,58.402 C604.418252,58.402 571.526705,91.3238934 571.526705,131.467289 L571.526705,577.509222 C571.526705,584.931966 567.681709,591.814218 561.385516,595.709232 L561.039665,595.91871 C511.446677,625.322324 480.402,678.622661 480.402,737.333778 C480.402,828.059276 553.87563,901.598 644.504918,901.598 C735.125715,901.598 808.598,828.057929 808.598,737.333778 C808.598,679.209772 778.171112,626.388872 729.442548,596.807969 L727.960335,595.91871 C721.45938,592.064303 717.473295,585.066925 717.473295,577.509222 L717.473295,131.467289 C717.473295,91.3250771 684.582929,58.402 644.504918,58.402 Z M677.630562,351 L677.630562,618.963495 C730.841354,633.274421 770,681.725023 770,739.322814 C770,808.172633 714.037946,864 645,864 C575.971915,864 520,808.172633 520,739.322814 C520,681.725023 559.168507,633.274421 612.379299,618.963495 L612.379299,351 L677.630562,351 Z M338,118 C353.463973,118 366,130.536027 366,146 L366,179 L379,179 C403.300529,179 423,198.699471 423,223 L423,737 C423,761.300529 403.300529,781 379,781 L195,781 C170.699471,781 151,761.300529 151,737 L151,223 C151,198.699471 170.699471,179 195,179 L208,179 L208,146 C208,130.536027 220.536027,118 236,118 L338,118 Z" id="Combined-Shape" fill="#000000" fill-rule="nonzero"></path>
    </g>
</svg>
